style-guide/assets/wds-icons-radio-active-tiny.svg

<svg viewBox="0 0 12 12" xmlns="http://www.w3.org/2000/svg">
  <path d="M6 10c-2.206 0-4-1.794-4-4s1.794-4 4-4 4 1.794 4 4-1.794 4-4 4M6 0C2.691 0 0 2.691 0 6s2.691 6 6 6 6-2.691 6-6-2.691-6-6-6m0 4c-1.103 0-2 .897-2 2s.897 2 2 2 2-.897 2-2-.897-2-2-2" fill-rule="evenodd"/>
</svg>

<svg xmlns="http://www.w3.org/2000/svg" xmlns:xlink="http://www.w3.org/1999/xlink" width="12" height="12" viewBox="0 0 12 12">
  <defs>
    <path id="radio-active-a" d="M6,10 C3.794,10 2,8.206 2,6 C2,3.794 3.794,2 6,2 C8.206,2 10,3.794 10,6 C10,8.206 8.206,10 6,10 M6,0 C2.691,0 0,2.691 0,6 C0,9.309 2.691,12 6,12 C9.309,12 12,9.309 12,6 C12,2.691 9.309,0 6,0 M6,4 C4.897,4 4,4.897 4,6 C4,7.103 4.897,8 6,8 C7.103,8 8,7.103 8,6 C8,4.897 7.103,4 6,4"/>
  </defs>
  <use fill-rule="evenodd" xlink:href="#radio-active-a"/>
</svg>
